gama.ui.shared/icons_svg/dark/gaml/_species.svg

<?xml version="1.0" encoding="UTF-8" standalone="no"?>
<!DOCTYPE svg PUBLIC "-//W3C//DTD SVG 1.1//EN" "http://www.w3.org/Graphics/SVG/1.1/DTD/svg11.dtd">
<svg xmlns:dc="http://purl.org/dc/elements/1.1/" xmlns:xl="http://www.w3.org/1999/xlink" version="1.1" xmlns="http://www.w3.org/2000/svg" viewBox="-594.98274 -2807.737 24 18" width="24" height="18">
  <defs/>
  <g id="SOURCES" stroke-dasharray="none" stroke="none" stroke-opacity="1" fill="none" fill-opacity="1">
    <title>SOURCES</title>
    <g id="SOURCES_New">
      <title>New</title>
      <g id="Group_10506">
        <g id="Graphic_10294"/>
        <g id="Group_10295">
          <title>users</title>
          <g id="Graphic_10296">
            <path d="M -590.87374 -2799.227 L -593.71574 -2797.764 C -594.06574 -2797.582 -594.28274 -2797.225 -594.28274 -2796.833 L -594.28274 -2796.287 C -594.28274 -2795.706 -593.81374 -2795.237 -593.23274 -2795.237 C -593.03674 -2795.237 -592.88274 -2795.083 -592.88274 -2794.887 C -592.88274 -2794.691 -593.03674 -2794.537 -593.23274 -2794.537 C -594.19874 -2794.537 -594.98274 -2795.321 -594.98274 -2796.287 L -594.98274 -2796.833 C -594.98274 -2797.491 -594.61874 -2798.086 -594.03074 -2798.387 L -591.67874 -2799.598 C -592.42774 -2800.249 -592.87574 -2801.208 -592.87574 -2802.237 C -592.88274 -2804.169 -591.31474 -2805.737 -589.38274 -2805.737 C -588.20674 -2805.737 -587.13574 -2805.156 -586.48474 -2804.204 C -586.37274 -2804.043 -586.41474 -2803.826 -586.57574 -2803.721 C -586.73674 -2803.609 -586.95374 -2803.651 -587.05874 -2803.812 C -587.57674 -2804.575 -588.43774 -2805.037 -589.37574 -2805.037 C -590.92274 -2805.037 -592.17574 -2803.784 -592.17574 -2802.237 C -592.17574 -2801.25 -591.65774 -2800.347 -590.83174 -2799.843 C -590.66374 -2799.745 -590.61474 -2799.528 -590.71274 -2799.36 C -590.74774 -2799.297 -590.80374 -2799.255 -590.86674 -2799.227 Z M -588.01074 -2796.238 L -590.86674 -2794.936 C -591.24474 -2794.768 -591.48274 -2794.39 -591.48274 -2793.977 L -591.48274 -2793.48 C -591.48274 -2792.899 -591.01374 -2792.43 -590.43274 -2792.43 L -582.73274 -2792.43 C -582.15174 -2792.43 -581.68274 -2792.899 -581.68274 -2793.48 L -581.68274 -2793.977 C -581.68274 -2794.39 -581.92074 -2794.761 -582.29874 -2794.936 L -585.15474 -2796.238 C -585.58874 -2796.042 -586.07174 -2795.937 -586.58274 -2795.937 C -587.09374 -2795.937 -587.57674 -2796.042 -588.01074 -2796.238 Z M -588.73874 -2796.679 C -589.55774 -2797.323 -590.08274 -2798.317 -590.08274 -2799.437 C -590.08274 -2801.369 -588.51474 -2802.937 -586.58274 -2802.937 C -584.65074 -2802.937 -583.08274 -2801.369 -583.08274 -2799.437 C -583.08274 -2798.317 -583.60774 -2797.316 -584.42674 -2796.679 L -582.00474 -2795.58 C -581.38174 -2795.293 -580.97574 -2794.67 -580.97574 -2793.984 L -580.97574 -2793.487 C -580.97574 -2792.521 -581.75974 -2791.737 -582.72574 -2791.737 L -590.43274 -2791.737 C -591.39874 -2791.737 -592.18274 -2792.521 -592.18274 -2793.487 L -592.18274 -2793.984 C -592.18274 -2794.67 -591.78374 -2795.293 -591.15374 -2795.58 L -588.73174 -2796.679 Z M -586.58274 -2796.637 C -585.03574 -2796.637 -583.78274 -2797.89 -583.78274 -2799.437 C -583.78274 -2800.984 -585.03574 -2802.237 -586.58274 -2802.237 C -588.12974 -2802.237 -589.38274 -2800.984 -589.38274 -2799.437 C -589.38274 -2797.89 -588.12974 -2796.637 -586.58274 -2796.637 Z" fill="#999"/>
          </g>
        </g>
      </g>
    </g>
  </g>
</svg>

<svg height="18" viewBox="-594.983 -2807.737 24 18" width="24" xmlns="http://www.w3.org/2000/svg"><path d="m-590.87374-2799.227-2.842 1.463c-.35.182-.567.539-.567.931v.546c0 .581.469 1.05 1.05 1.05.196 0 .35.154.35.35s-.154.35-.35.35c-.966 0-1.75-.784-1.75-1.75v-.546c0-.658.364-1.253.952-1.554l2.352-1.211c-.749-.651-1.197-1.61-1.197-2.639-.007-1.932 1.561-3.5 3.493-3.5 1.176 0 2.247.581 2.898 1.533.112.161.07.378-.091.483-.161.112-.378.07-.483-.091-.518-.763-1.379-1.225-2.317-1.225-1.547 0-2.8 1.253-2.8 2.8 0 .987.518 1.89 1.344 2.394.168.098.217.315.119.483-.035.063-.091.105-.154.133zm2.863 2.989-2.856 1.302c-.378.168-.616.546-.616.959v.497c0 .581.469 1.05 1.05 1.05h7.7c.581 0 1.05-.469 1.05-1.05v-.497c0-.413-.238-.784-.616-.959l-2.856-1.302c-.434.196-.917.301-1.428.301s-.994-.105-1.428-.301zm-.728-.441c-.819-.644-1.344-1.638-1.344-2.758 0-1.932 1.568-3.5 3.5-3.5s3.5 1.568 3.5 3.5c0 1.12-.525 2.121-1.344 2.758l2.422 1.099c.623.287 1.029.91 1.029 1.596v.497c0 .966-.784 1.75-1.75 1.75h-7.707c-.966 0-1.75-.784-1.75-1.75v-.497c0-.686.399-1.309 1.029-1.596l2.422-1.099zm2.156.042c1.547 0 2.8-1.253 2.8-2.8s-1.253-2.8-2.8-2.8-2.8 1.253-2.8 2.8 1.253 2.8 2.8 2.8z" fill="#999"/></svg>
